X: 1
T:Ormond Sound
C:Paddy O'Brien (Nenagh)
R:reel
S:session
Z:id:hn-reel-456
M:C|
K:Ador
A2ed BedB|AG~G2 AGEG|A2ed (3Bcd ef|(3gag fa gedg|
eA~A2 BedB|AGEF GEDG|EA~A2 GABd|1 gedB AEFG:|2 gedB ABcd||
|:efge agfg|e2ag edBd|(3efg fa ~g3e|d2ge dBGB|
c2cA d2cd|efge a2ga|bg~g2 agab|1 gedB A2 (3Bcd:|2 gedB A2 (3EFG||
